packages/ui-icons/svg/Line/text-color.svg

<svg viewBox="0 0 1920 1920" version="1.1" xmlns="http://www.w3.org/2000/svg">
    <path d="M1846.30769,1476.92308 L1846.30769,1920 L74,1920 L74,1476.92308 L1846.30769,1476.92308 Z M1698.61538,1624.61538 L221.692308,1624.61538 L221.692308,1772.30769 L1698.61538,1772.30769 L1698.61538,1624.61538 Z M1109.75138,0.0590769231 L1619.14215,1227.08677 L1482.67446,1283.65292 L1317.70215,886.065231 L602.576,886.065231 L437.603692,1283.65292 L301.136,1227.08677 L810.526769,0.0590769231 L1109.75138,0.0590769231 Z M1011.09292,147.751385 L909.332923,147.751385 L663.868308,738.372923 L1256.40985,738.372923 L1011.09292,147.751385 Z" stroke="none" stroke-width="1" fill-rule="evenodd"/>
</svg>

<svg viewBox="0 0 1920 1920" version="1.1" xmlns="http://www.w3.org/2000/svg">
    <path d="M74 1920v-443.077h1772.308V1920H74zm147.692-147.692h1476.923v-147.693H221.692v147.693zM810.527.059h299.224l509.391 1227.028-136.468 56.566-164.972-397.588H602.576l-164.972 397.588-136.468-56.566L810.526.059zm98.806 147.692L663.868 738.373h592.542L1011.093 147.75h-101.76z" stroke="none" stroke-width="1" fill-rule="evenodd"/>
</svg>
